X:1
T:Title
L:1/8
M:4/4
K:Eb
V:1 treble nm="Grand Piano"
V:1
 z4 z2[Q:1/4=100] GF | G3 G F A2 F | F2 ED- D2 DE | F3 B- BAGF | G6 GF | G3 G F A2 F | %6
 F2 ED- D2 DE | F3 B- BAGF | G6 GA | B3 c- c c2 B | cBAG F2 FE | D3 B- BAGB | A G3- G2 GA | %13
 B3 c- c c2 B | cBAG F2 FE | D3 B- BAGB | A G3- G2 cB | c3 B- B c2 B | AGAG F2 FG | A3 c- cBAB | %20
 G6 cB | c3 B- B c2 B | AGAG F2 FG | A3 c- cBAB | G6 FG | A3 F- F F2 =E | F>G FE DDDE | %27
 F3 G- G E2 D | C2 G4 z2 |] %29

